src/resources/svg/YourAccount.svg

<svg fill="none" height="24" viewBox="0 0 24 24" width="24" xmlns="http://www.w3.org/2000/svg" xmlns:xlink="http://www.w3.org/1999/xlink"><linearGradient id="a" gradientUnits="userSpaceOnUse" x1="2" x2="22" y1="11.796" y2="11.796"><stop offset="0" stop-color="#ff9574"/><stop offset="1" stop-color="#ff4c8c"/></linearGradient><path d="m17 2h-10c-2.76142 0-5 2.23858-5 5v10c0 2.7614 2.23858 5 5 5h10c2.7614 0 5-2.2386 5-5v-10c0-2.76142-2.2386-5-5-5z" fill="url(#a)"/><path d="m18.6879 8.87061c-.3451.86903-.8674 1.65659-1.5337 2.31259s-1.462 1.166-2.3363 1.4974c-.9548.2621-1.9617.269-2.92.02-.724-.1866-1.4827-.1935-2.21-.02-.69283.2823-1.3202.7041-1.84317 1.2391-.52296.535-.93034 1.1719-1.19683 1.8709-.06204.1272-.15885.2341-.27923.3085-.12037.0743-.25935.113-.40082.1115-.11446-.0027-.22701-.03-.33-.08-.17744-.0878-.31286-.2423-.37659-.4298-.06373-.1874-.05057-.3924.03658-.5702 1.04-2.1 2.37001-3.41 3.95001-3.88.95555-.2569 1.96105-.2638 2.91995-.02.7227.1967 1.4839.2036 2.21.02.675-.2795 1.2861-.6931 1.7966-1.2156.5105-.52252.9097-1.14316 1.1734-1.8244.0878-.17745.2424-.31285.4298-.37658s.3925-.05058.5702.03659c.0887.04259.168.10243.2332.17602.0653.0736.1152.15945.1468.25257.0317.09311.0445.19162.0376.28973-.0068.09811-.0332.19387-.0775.28168z" fill="#fff"/></svg>

<svg width="24" height="24" viewBox="0 0 24 24" fill="none" xmlns="http://www.w3.org/2000/svg">
<path d="M17 2H7C4.23858 2 2 4.23858 2 7V17C2 19.7614 4.23858 22 7 22H17C19.7614 22 22 19.7614 22 17V7C22 4.23858 19.7614 2 17 2Z" fill="url(#paint0_linear_254_734)"/>
<path d="M18.6879 8.87061C18.3428 9.73964 17.8205 10.5272 17.1542 11.1832C16.4879 11.8392 15.6922 12.3492 14.8179 12.6806C13.8631 12.9427 12.8562 12.9496 11.8979 12.7006C11.1739 12.514 10.4152 12.5071 9.6879 12.6806C8.99507 12.9629 8.3677 13.3847 7.84473 13.9197C7.32177 14.4547 6.91439 15.0916 6.6479 15.7906C6.58586 15.9178 6.48905 16.0247 6.36867 16.0991C6.2483 16.1734 6.10932 16.2121 5.96785 16.2106C5.85339 16.2079 5.74084 16.1806 5.63785 16.1306C5.46041 16.0428 5.32499 15.8883 5.26126 15.7008C5.19753 15.5134 5.21069 15.3084 5.29784 15.1306C6.33784 13.0306 7.66785 11.7206 9.24785 11.2506C10.2034 10.9937 11.2089 10.9868 12.1678 11.2306C12.8905 11.4273 13.6517 11.4342 14.3778 11.2506C15.0528 10.9711 15.6639 10.5575 16.1744 10.035C16.6849 9.51248 17.0841 8.89184 17.3478 8.2106C17.4356 8.03315 17.5902 7.89775 17.7776 7.83402C17.965 7.77029 18.1701 7.78344 18.3478 7.87061C18.4365 7.9132 18.5158 7.97304 18.581 8.04663C18.6463 8.12023 18.6962 8.20608 18.7278 8.2992C18.7595 8.39231 18.7723 8.49082 18.7654 8.58893C18.7586 8.68704 18.7322 8.7828 18.6879 8.87061Z" fill="white"/>
<defs>
<linearGradient id="paint0_linear_254_734" x1="2" y1="11.7959" x2="22" y2="11.7959" gradientUnits="userSpaceOnUse">
<stop stop-color="#FF9574"/>
<stop offset="1" stop-color="#FF4C8C"/>
</linearGradient>
</defs>
</svg>
